GeoFa/HOLDEPLADS.svg

<?xml version="1.0" encoding="UTF-8"?>
<svg width="128.13" height="128.13" version="1.1" xmlns="http://www.w3.org/2000/svg">
 <defs>
  <style>.cls-1{fill:#031E3A;}.cls-2{fill:#fff;}</style>
 </defs>
 <g id="Isolation_Mode" data-name="Isolation Mode">
  <rect class="cls-1" width="128.13" height="128.13" rx="64.06"/>
  <path class="cls-2" d="m104.74 63h-8.26l-5.9-13-1.32-2.91a3 3 0 0 0-2.59-1.49h-45.67a2.94 2.94 0 0 0-2.59 1.49l-6.91 15.91h-9.13a1.25 1.25 0 0 0-1.26 1.26v3.34a1.25 1.25 0 0 0 1.26 1.26h6.63l-0.7 1.62a3.73 3.73 0 0 0-0.3 1.3h-0.12v28.64a2.57 2.57 0 0 0 2.54 2.58h7.3a2.57 2.57 0 0 0 2.57-2.57v-10.51h47.53v10.5a2.58 2.58 0 0 0 2.58 2.58h7.29a2.57 2.57 0 0 0 2.57-2.57v-28.65h-0.06a3.78 3.78 0 0 0-0.33-1.3l-0.74-1.62h5.61a1.26 1.26 0 0 0 1.26-1.26v-3.31a1.26 1.26 0 0 0-1.26-1.29zm-62.44-9.9 0.63-1.46h41.82l7.25 15.96h-56zm5.38 23.36a2.77 2.77 0 0 1-2.76 2.76h-7a3.73 3.73 0 0 1-3.73-3.74 2.1 2.1 0 0 1 2.1-2.1h9.28a2.1 2.1 0 0 1 2.1 2.1zm43.24 2.76h-7a2.76 2.76 0 0 1-2.76-2.76v-1a2.1 2.1 0 0 1 2.1-2.1h9.28a2.1 2.1 0 0 1 2.1 2.1 3.73 3.73 0 0 1-3.72 3.76z"/>
  <path class="cls-2" d="m68.14 12.41a13.11 13.11 0 0 0-15.85 19 13.11 13.11 0 0 0 24.38-6.71 13.31 13.31 0 0 0-8.53-12.29zm-1 22.26a10.62 10.62 0 1 1-1.64-20.42 10.62 10.62 0 0 1 1.68 20.42z"/>
  <path class="cls-2" d="m68.27 27.64-3.35-3.35-0.11-0.12v-7.45a1.25 1.25 0 0 0-2.5 0v8a1.22 1.22 0 0 0 0.08 0.43v0.08a1.46 1.46 0 0 0 0.22 0.33l3.39 3.37 0.48 0.48a1.2516 1.2516 0 0 0 1.77-1.77z"/>
 </g>
</svg>

<svg xmlns="http://www.w3.org/2000/svg"><defs><style>.cls-1{fill:#031E3A;}.cls-2{fill:#fff;}</style></defs><g id="Isolation_Mode" data-name="Isolation Mode"><rect class="cls-1" width="128.13" height="128.13" rx="64.06"/><path class="cls-2" d="M104.74,63H96.48l-5.9-13-1.32-2.91a3,3,0,0,0-2.59-1.49H41a2.94,2.94,0,0,0-2.59,1.49L31.5,63H22.37a1.25,1.25,0,0,0-1.26,1.26V67.6a1.25,1.25,0,0,0,1.26,1.26H29l-.7,1.62a3.73,3.73,0,0,0-.3,1.3h-.12v28.64A2.57,2.57,0,0,0,30.42,103h7.3a2.57,2.57,0,0,0,2.57-2.57V89.92H87.82v10.5A2.58,2.58,0,0,0,90.4,103h7.29a2.57,2.57,0,0,0,2.57-2.57V71.78h-.06a3.78,3.78,0,0,0-.33-1.3l-.74-1.62h5.61A1.26,1.26,0,0,0,106,67.6V64.29A1.26,1.26,0,0,0,104.74,63ZM42.3,53.1l.63-1.46H84.75L92,67.6H36Zm5.38,23.36a2.77,2.77,0,0,1-2.76,2.76h-7a3.73,3.73,0,0,1-3.73-3.74,2.1,2.1,0,0,1,2.1-2.1h9.28a2.1,2.1,0,0,1,2.1,2.1Zm43.24,2.76h-7a2.76,2.76,0,0,1-2.76-2.76v-1a2.1,2.1,0,0,1,2.1-2.1h9.28a2.1,2.1,0,0,1,2.1,2.1A3.73,3.73,0,0,1,90.92,79.22Z"/><path class="cls-2" d="M68.14,12.41a13.11,13.11,0,0,0-15.85,19,13.11,13.11,0,0,0,24.38-6.71A13.31,13.31,0,0,0,68.14,12.41Zm-1,22.26A10.62,10.62,0,1,1,65.5,14.25a10.62,10.62,0,0,1,1.68,20.42Z"/><path class="cls-2" d="M68.27,27.64l-3.35-3.35-.11-.12V16.72a1.25,1.25,0,0,0-2.5,0v8a1.22,1.22,0,0,0,.08.43l0,.08a1.46,1.46,0,0,0,.22.33l0,0L66,28.93l.48.48a1.25,1.25,0,0,0,1.77-1.77Z"/></g></svg>
